ds42/src/images/icons/compare.svg

<?xml version="1.0" encoding="UTF-8"?>
<svg width="22px" height="18px" viewBox="0 0 22 18" version="1.1" xmlns="http://www.w3.org/2000/svg" xmlns:xlink="http://www.w3.org/1999/xlink">
    <!-- Generator: Sketch 62 (91390) - https://sketch.com -->
    <title>compare</title>
    <desc>Created with Sketch.</desc>
    <g id="Page-1" stroke="none" stroke-width="1" fill="none" fill-rule="evenodd">
        <g id="Artboard" transform="translate(-692.000000, -133.000000)" fill="#2C2C2C">
            <g id="Compare" transform="translate(692.000000, 133.000000)">
                <g id="Compare_Icon">
                    <path d="M20.6496,16.0961538 L11.4912,16.0961538 C11.664,15.9230769 11.7504,15.6634615 11.7504,15.4038462 L11.7504,3.63461538 C11.7504,3.63461538 11.7504,3.54807692 11.7504,3.54807692 C12.0096,3.375 12.2688,3.11538462 12.4416,2.85576923 L17.712,2.85576923 C17.712,2.85576923 17.712,2.94230769 17.6256,2.94230769 L17.1072,4.06730769 C17.1072,4.15384615 17.1072,4.15384615 17.0208,4.24038462 C16.9344,4.41346154 16.9344,4.58653846 16.848,4.75961538 C16.7616,5.01923077 16.6752,5.27884615 16.5888,5.53846154 C16.5024,5.79807692 16.416,6.14423077 16.2432,6.40384615 C16.1568,6.75 15.984,7.00961538 15.8976,7.35576923 C15.8112,7.70192308 15.6384,7.96153846 15.552,8.30769231 C15.4656,8.56730769 15.3792,8.91346154 15.2064,9.17307692 C15.12,9.43269231 15.0336,9.60576923 14.9472,9.86538462 C14.8608,10.0384615 14.7744,10.2115385 14.7744,10.3846154 C14.7744,10.4711538 14.7744,10.5576923 14.7744,10.6442308 C14.7744,11.1634615 15.0336,11.5961538 15.2928,11.9423077 C15.552,12.2884615 15.8112,12.5480769 16.1568,12.7211538 C16.5024,12.8942308 16.9344,13.0673077 17.28,13.1538462 C17.4528,13.1538462 17.6256,13.1538462 17.7984,13.1538462 C19.44,13.1538462 20.736,11.9423077 20.8224,10.4711538 L18.576,4.06730769 L18.144,2.85576923 C18.144,2.85576923 18.2016,2.85576923 18.3168,2.85576923 C18.8352,2.85576923 19.2672,2.42307692 19.2672,1.90384615 C19.2672,1.38461538 18.8352,0.951923077 18.3168,0.951923077 L12.528,0.951923077 C12.1824,0.432692308 11.5776,0 10.8864,0 C10.1952,0 9.5904,0.346153846 9.2448,0.951923077 L3.456,0.951923077 C2.9376,0.951923077 2.5056,1.38461538 2.5056,1.90384615 C2.5056,2.42307692 2.9376,2.85576923 3.456,2.85576923 L3.5424,2.85576923 C3.5424,2.85576923 3.5424,2.94230769 3.456,2.94230769 L2.9376,3.98076923 C2.9376,4.06730769 2.9376,4.06730769 2.8512,4.15384615 C2.7648,4.32692308 2.7648,4.5 2.6784,4.67307692 C2.592,4.93269231 2.5056,5.19230769 2.4192,5.45192308 C2.3328,5.71153846 2.2464,6.05769231 2.0736,6.31730769 C1.9872,6.66346154 1.8144,6.92307692 1.728,7.26923077 C1.6416,7.61538462 1.4688,7.875 1.3824,8.22115385 C1.296,8.48076923 1.2096,8.82692308 1.0368,9.08653846 C0.9504,9.34615385 0.864,9.51923077 0.7776,9.77884615 C0.6912,9.95192308 0.6048,10.125 0.6048,10.2980769 C0.6048,10.3846154 0.6048,10.4711538 0.6048,10.5576923 C0.6048,11.0769231 0.864,11.5096154 1.1232,11.8557692 C1.3824,12.2019231 1.6416,12.4615385 1.9872,12.6346154 C2.3328,12.8076923 2.7648,12.9807692 3.1104,13.0673077 C3.2832,13.0673077 3.456,13.0673077 3.6288,13.0673077 C5.2704,13.0673077 6.5664,11.8557692 6.6528,10.3846154 L4.32,4.06730769 L3.888,2.85576923 C3.888,2.85576923 5.6736,2.85576923 9.2448,2.85576923 C9.4176,3.11538462 9.6768,3.375 9.936,3.54807692 C9.936,3.54807692 9.936,3.63461538 9.936,3.63461538 L9.936,15.4038462 C9.936,15.6634615 10.0224,15.9230769 10.1952,16.0961538 L0.9504,16.0961538 C0.432,16.0961538 0,16.5288462 0,17.0480769 C0,17.5673077 0.432,18 0.9504,18 L20.6496,18 C21.168,18 21.6,17.5673077 21.6,17.0480769 C21.6,16.4423077 21.168,16.0961538 20.6496,16.0961538 Z M19.6992,10.125 C19.6992,10.2115385 19.6992,10.3846154 19.44,10.4711538 L16.1568,10.4711538 C15.8976,10.4711538 15.8976,10.125 15.8976,10.125 L17.7984,4.84615385 L19.6992,10.125 Z M5.5296,10.125 C5.5296,10.2115385 5.5296,10.3846154 5.2704,10.4711538 L1.9872,10.4711538 C1.728,10.4711538 1.728,10.125 1.728,10.125 L3.6288,4.84615385 L5.5296,10.125 Z" id="Shape" fill-rule="nonzero"></path>
                </g>
            </g>
        </g>
    </g>
</svg>

<svg width="22" height="18" xmlns="http://www.w3.org/2000/svg">
  <path d="M20.65 16.096H11.49c.173-.173.26-.433.26-.692V3.634v-.086c.259-.173.518-.433.69-.692h5.271s0 .086-.086.086l-.519 1.125c0 .087 0 .087-.086.173-.087.173-.087.347-.173.52l-.26.778c-.086.26-.172.606-.345.866-.086.346-.259.606-.345.952-.087.346-.26.606-.346.952-.086.26-.173.605-.346.865-.086.26-.172.433-.259.692-.086.173-.173.347-.173.52v.26c0 .518.26.951.519 1.297s.518.606.864.78c.345.172.777.345 1.123.432h.518c1.642 0 2.938-1.212 3.024-2.683l-2.246-6.404-.432-1.211h.173a.96.96 0 00.95-.952.96.96 0 00-.95-.952h-5.789C12.182.432 11.578 0 10.886 0c-.69 0-1.296.346-1.641.952H3.456a.96.96 0 00-.95.952c0 .52.432.952.95.952h.086s0 .086-.086.086l-.518 1.039c0 .086 0 .086-.087.173-.086.173-.086.346-.173.52l-.259.778c-.086.26-.173.606-.345.865-.087.346-.26.606-.346.952-.086.346-.26.606-.346.952-.086.26-.172.606-.345.866-.087.26-.173.432-.26.692-.086.173-.172.346-.172.52v.259c0 .519.259.952.518 1.298.26.346.519.606.864.779.346.173.778.346 1.123.432h.519c1.641 0 2.937-1.211 3.024-2.682L4.32 4.067l-.432-1.211h5.357c.173.26.432.519.691.692v11.856c0 .26.086.52.26.692H.95a.96.96 0 00-.95.952c0 .52.432.952.95.952h19.7a.96.96 0 00.95-.952c0-.606-.432-.952-.95-.952zm-.95-5.971c0 .087 0 .26-.26.346h-3.283c-.26 0-.26-.346-.26-.346l1.901-5.279 1.901 5.279zm-14.17 0c0 .087 0 .26-.26.346H1.987c-.259 0-.259-.346-.259-.346l1.9-5.279 1.902 5.279z" fill-rule="nonzero" fill="#2C2C2C"/>
</svg>
